icons/tokens/0x3c9d6c1C73b31c837832c72E04D3152f051fc1A9/logo.svg

<svg width="32" height="32" viewBox="0 0 32 32" fill="none" xmlns="http://www.w3.org/2000/svg">
<path fill-rule="evenodd" clip-rule="evenodd" d="M32 15.9993C32 22.4704 28.1025 28.3047 22.1242 30.782C16.1447 33.2577 9.26347 31.8896 4.68713 27.3129C0.110426 22.7365 -1.25771 15.8553 1.21804 9.87582C3.69527 3.89748 9.52958 0 16.0007 0C24.837 0 32 7.16299 32 15.9993V15.9993Z" fill="white"/>
<path fill-rule="evenodd" clip-rule="evenodd" d="M22.1242 30.782C28.1025 28.3047 32 22.4704 32 15.9993C32 7.16299 24.837 0 16.0007 0C14.1715 0 12.3932 0.311415 10.7272 0.893215L10.7306 0.895467V16.4426C10.7306 18.58 12.0128 20.5075 13.9827 21.3334C15.9542 22.1593 18.2263 21.7231 19.7515 20.2254C21.2752 18.7281 21.752 16.463 20.9611 14.4786C20.1702 12.4941 18.2658 11.1785 16.1287 11.139H13.3489V9.28107H16.0282C18.9141 9.27661 21.5194 11.0054 22.6374 13.6646C23.754 16.3235 23.1667 19.3955 21.1442 21.4525C19.1222 23.5114 16.0632 24.1538 13.3839 23.0838C10.7046 22.0138 8.93074 19.439 8.88273 16.5546V1.67001C7.89897 2.15884 6.96834 2.74748 6.10589 3.42587V16.437C6.10589 20.4379 8.50757 24.0477 12.1974 25.5945C15.8887 27.1402 20.1457 26.3199 22.9981 23.514C25.8505 20.7067 26.7389 16.463 25.2527 12.7487C23.767 9.03395 20.1963 6.5742 16.1953 6.5087H13.3489V4.66082H16.0282C20.775 4.65784 25.0596 7.50465 26.8955 11.8819C28.7319 16.258 27.7609 21.3103 24.4328 24.6946C21.1051 28.0792 16.0718 29.1347 11.664 27.3728C7.25742 25.6105 4.33803 21.3755 4.2595 16.6302V5.13051C4.45425 4.91986 4.65449 4.71442 4.86005 4.51452C3.32205 6.00546 2.07103 7.81728 1.21804 9.87582C-1.25771 15.8553 0.110426 22.7365 4.68713 27.3129C9.26347 31.8896 16.1447 33.2577 22.1242 30.782ZM18.5043 15.268C18.0868 14.2735 17.1128 13.6267 16.0342 13.6267H13.3549V16.3629C13.3764 17.44 14.0438 18.401 15.0468 18.7981C16.0502 19.1949 17.1928 18.9522 17.9472 18.1814C18.7035 17.411 18.9216 16.2624 18.5043 15.268Z" fill="url(#paint0_linear)"/>
<defs>
<linearGradient id="paint0_linear" x1="0" y1="0" x2="0" y2="32" gradientUnits="userSpaceOnUse">
<stop stop-color="#137AEA"/>
<stop offset="1" stop-color="#005CD2"/>
</linearGradient>
</defs>
</svg>

<svg fill="none" viewBox="0 0 32 32"><path fill="#fff" fill-rule="evenodd" d="M32 16a16.002 16.002 0 01-9.876 14.782A16 16 0 1116.001 0C24.837 0 32 7.163 32 16z" clip-rule="evenodd"/><path fill="url(#paint0_linear)" fill-rule="evenodd" d="M22.124 30.782A16.002 16.002 0 0032 15.999C32 7.163 24.837 0 16 0c-1.829 0-3.607.311-5.273.893l.004.002v15.548a5.303 5.303 0 009.02 3.782 5.304 5.304 0 00-3.622-9.086h-2.78V9.281h2.68a7.157 7.157 0 11-7.146 7.274V1.67a16.03 16.03 0 00-2.777 1.756v13.011a9.93 9.93 0 0016.892 7.077 9.929 9.929 0 00-6.803-17.005H13.35V4.66h2.68A11.776 11.776 0 114.26 16.63V5.13a15.976 15.976 0 00-3.041 4.745 16 16 0 0020.906 20.906zm-3.62-15.514a2.679 2.679 0 00-2.47-1.641h-2.68v2.736a2.678 2.678 0 004.593 1.818c.756-.77.975-1.919.557-2.913z" clip-rule="evenodd"/><defs><linearGradient id="paint0_linear" x1="0" x2="0" y1="0" y2="32" gradientUnits="userSpaceOnUse"><stop stop-color="#137AEA"/><stop offset="1" stop-color="#005CD2"/></linearGradient></defs></svg>
